toolkits/global/packages/global-context/img/icons/calendar.svg

<svg height="24" viewBox="0 0 24 24" width="24" xmlns="http://www.w3.org/2000/svg"><path d="m15.5 3c.2761424 0 .5.21505737.5.49047852v.50952148h2c1.1072288 0 2 .89451376 2 2v12c0 1.1072288-.8945138 2-2 2h-12c-1.1072288 0-2-.8945138-2-2v-12c0-1.1072288.89451376-2 2-2h1v1h-1c-.55393837 0-1 .44579254-1 1v3h14v-3c0-.55393837-.4457925-1-1-1h-2v1.50952148c0 .27088381-.2319336.49047852-.5.49047852-.2761424 0-.5-.21505737-.5-.49047852v-3.01904296c0-.27088381.2319336-.49047852.5-.49047852zm3.5 7h-14v8c0 .5539384.44579254 1 1 1h12c.5539384 0 1-.4457925 1-1zm-11 6v1h-1v-1zm3 0v1h-1v-1zm3 0v1h-1v-1zm-6-2v1h-1v-1zm3 0v1h-1v-1zm6 0v1h-1v-1zm-3 0v1h-1v-1zm-3-2v1h-1v-1zm6 0v1h-1v-1zm-3 0v1h-1v-1zm-5.5-9c.27614237 0 .5.21505737.5.49047852v.50952148h5v1h-5v1.50952148c0 .27088381-.23193359.49047852-.5.49047852-.27614237 0-.5-.21505737-.5-.49047852v-3.01904296c0-.27088381.23193359-.49047852.5-.49047852z" fill="#666" fill-rule="evenodd"/></svg>

<?xml version="1.0" encoding="UTF-8"?>
<svg width="24px" height="24px" viewBox="0 0 24 24" version="1.1" xmlns="http://www.w3.org/2000/svg" xmlns:xlink="http://www.w3.org/1999/xlink">
    <!-- Generator: Sketch 63.1 (92452) - https://sketch.com -->
    <title>icon-icon / calendar</title>
    <desc>Created with Sketch.</desc>
    <g id="icon-/-calendar" stroke="none" stroke-width="1" fill="none" fill-rule="evenodd">
        <path d="M15.5,3 C15.7761424,3 16,3.21505737 16,3.49047852 L16,4 L18,4 C19.1072288,4 20,4.89451376 20,6 L20,18 C20,19.1072288 19.1054862,20 18,20 L6,20 C4.8927712,20 4,19.1054862 4,18 L4,6 C4,4.8927712 4.89451376,4 6,4 L7,4 L7,5 L6,5 C5.44606163,5 5,5.44579254 5,6 L5,9 L19,9 L19,6 C19,5.44606163 18.5542075,5 18,5 L16,5 L16,6.50952148 C16,6.78040529 15.7680664,7 15.5,7 C15.2238576,7 15,6.78494263 15,6.50952148 L15,3.49047852 C15,3.21959471 15.2319336,3 15.5,3 Z M19,10 L5,10 L5,18 C5,18.5539384 5.44579254,19 6,19 L18,19 C18.5539384,19 19,18.5542075 19,18 L19,10 Z M8,16 L8,17 L7,17 L7,16 L8,16 Z M11,16 L11,17 L10,17 L10,16 L11,16 Z M14,16 L14,17 L13,17 L13,16 L14,16 Z M8,14 L8,15 L7,15 L7,14 L8,14 Z M11,14 L11,15 L10,15 L10,14 L11,14 Z M17,14 L17,15 L16,15 L16,14 L17,14 Z M14,14 L14,15 L13,15 L13,14 L14,14 Z M11,12 L11,13 L10,13 L10,12 L11,12 Z M17,12 L17,13 L16,13 L16,12 L17,12 Z M14,12 L14,13 L13,13 L13,12 L14,12 Z M8.5,3 C8.77614237,3 9,3.21505737 9,3.49047852 L9,4 L14,4 L14,5 L9,5 L9,6.50952148 C9,6.78040529 8.76806641,7 8.5,7 C8.22385763,7 8,6.78494263 8,6.50952148 L8,3.49047852 C8,3.21959471 8.23193359,3 8.5,3 Z" id="calendar" fill="#666666"></path>
    </g>
</svg>
